X: 03017
T: CATHAL'S FLUTE - second setting
C: Bob McQuillen 22 Apr 77
B: Bob's Note Book 03 #17
%R: jig
%D:1977
Z: 2020 John Chambers <jc:trillian.mit.edu>
M: 6/8
L: 1/8
K: Em
G/A/ \
| BGB AFD | EGB dBd | edB GAB | AED EGA |\
| BGB AFD | EGB dBd | edB GAB | AEE E2 :|
|: B/d/ \
| ede dBA | GAB AFD | EGB EGB | dBG ABd |\
| ede dBA | GAB AFD | EGB AFD | EFE E2 :|
%%begintext align
%% "All the best" to you, too,
%% Cathal. We sure do love
%% your great music.
%%endtext

%%sep 1 1 500

%%sep 1 1 500

